X: 23207
T: League, The
R: reel
M: 4/4
K: Gmajor
|:G2 Bd gdBd|cBAG FADF|GFED CEAG|1 FDFA dBcA:|2 FDEF G2 ga||
|:bg g2 bgdg|af f2 afdg|bgaf gefd|ecdB c2BA|
G2 Bd gdBd|cBAG FADF|GFED CE AG|FDEF G2ga:|

